X:1
T:Rondo
T:Rondo
T:Johann Wanhal (1739-1813) Opus 42, No. 1
T:by Mutopia-2013/01/13-192
C:Johann Wanhal (1739-1813)Opus 42, No. 1
Z:by Mutopia-2013/01/13-192
%%score { ( 1 4 ) | ( 2 3 ) }
L:1/8
Q:1/4=108
M:2/4
K:C
V:1 treble nm="Piano" snm="Pno."
V:4 treble 
V:2 bass 
V:3 bass 
V:1
"^Allegretto" (!>!ge c2) | (!>!gf d2) | (egec | d) (^fa.g) | (ge c2) | (gf d2) | (egBd | c2- c) z | %8
 (dgeg | fgeg | dgeg | d) (^fag) | (=fgeg | dgeg | fgeg | d)(ef^f | ge c2) | (gf d2) | (egec | %19
 .d) ^fag | (ge c2) | (c'a f2) | (egBd | c2- c) z!fine! ||[K:F] (f2 af | c2 A2) | (c2 fc | A2 F2) | %28
 (.F2 .F.F | .G2 .G.G) | (Ac)(Bd) | (!>!G>AG) z | (f2 af | c2 A2) | (c2 fc | A2 F2) | (.F2 .F.F | %37
 .G2 .G.G) | (AB[EG]A | F2) z2 | (G2 .A)(A | B2 (A2) | GABA | G3) (A | Bcdc | B2 A2 | G2 A2 | %47
 G3) z | (f2 a/f/a/f/ | c2 (A2) | c2 f/c/f/c/ | A2 F2) | (.F2 .F.F | .G2 .G.G) | (AB)([EG]A) | %55
 F2 z2!D.C.! |] %56
V:2
 [CE]3 [CE] | [G,D]3 [G,D] | [CE]2 [E,C]2 | [G,B,]2 z2 | (C,G,E,G, | C,G,F,G, | C,E,D,F, | %7
 E,G,E,) z | [G,B,]2 [G,C]2 | [G,D]2 [G,C]2 | [G,B,]2 [G,C]2 | [G,B,]2 z2 | (DG,CG, | B,G,CG, | %14
 DG,CG,) | [G,B,]2 z2 | (C,G,E,G, | B,,G,F,G, | C,G,E,G, | [G,,B,,]2) z2 | (C,_B,G,B, | F,CA,C) | %22
 ([G,C]E[G,D]F | [CE]G [CE]) z ||[K:F] F,CA,C | F,CA,C | F,CA,C | F,CA,C | (.A,2 .A,.A, | %29
 .C2 .C.C) | F2 B,2 | C2- C z | F,CA,C | F,CA,C | F,CA,C | F,CA,C | (.A,2 .A,.A, | .C2 .C.C) | %38
 F2 (([C,B,]2 | [F,A,]2)) z2 |[K:treble] (C2 .F)(F | G2 (F2) | CFGF | C3) (F | GABA | G2 F2 | %46
 C2 F2 | C3) z |[K:bass] F,CA,C | F,CA,C | F,CA,C | F,CA,C | (.A,2 .A,.A, | .C2 .C.C) | %54
 F2 ((([C,B,]2 | [F,A,]2))) z2 |] %56
V:3
 x4 | x4 | x4 | x4 | C,4 | B,,4 | C,2 G,,2 | C,2 C, z | x4 | x4 | x4 | x4 | x4 | x4 | x4 | x4 | %16
 C,4 | B,,4 | C,4 | x4 | C,4 | F,4 | x4 | x4 ||[K:F] x4 | x4 | x4 | x4 | x4 | x4 | x4 | x4 | x4 | %33
 x4 | x4 | x4 | x4 | x4 | x4 | x4 |[K:treble] x4 | x4 | x4 | x4 | x4 | x4 | x4 | x4 |[K:bass] x4 | %49
 x4 | x4 | x4 | x4 | x4 | x4 | x4 |] %56
V:4
 x4 | x4 | x4 | x4 | x4 | x4 | x4 | x4 | x4 | x4 | x4 | x4 | x4 | x4 | x4 | x4 | x4 | x4 | x4 | %19
 x4 | x4 | x4 | x4 | x4 ||[K:F] x4 | x4 | x4 | x4 | x4 | x4 | x2 G x | E2- E x | x4 | x4 | x4 | %35
 x4 | x4 | x4 | x4 | x4 | x4 | x4 | x4 | x4 | x4 | x4 | x4 | x4 | x4 | x4 | x4 | x4 | x4 | x4 | %54
 x4 | x4 |] %56

